X:187
T:Lord McDonald's Reel
R:reel
H:See also Dennis Murphy's, #438, Noon Lasses, #738
Z:id:hn-reel-187
S:Henrik Norbeck <henrik.norbeck@MAILBOX.SWIPNET.SE> irtrad-l 2001-8-14
M:C|
K:G
DGBG dGBG|cABG AGEG|1 DGBG dGBG|DEDC B,G,G,2:|2 BcBA
GAGE|DEGA BG~G2||
|:Bd~d2 dBGA|(3Bcd ef gfed|1 BddB d2ge|dBAc BGGA:|2 (3Bcd ef g2ge|dBAc BG~G2||
|:dgbg agbg|dgbg ageg|1 dgbg agbg|dedc BGGB:|2 bgaf gedB|dega bg~g2||
|:Bd~d2 dBGA|(3Bcd ef gfed|1 BddB d2ge|dBAc BGGA:|2 (3Bcd ef g2ge|dBAc BG~G2||
